!!! OTL: Literature31
!!! Chapter: 5
!!! Section: I
!!! Page: 351
!!! Mode: 
!!! Encoder: DJB
**kern
*staff1
*I"Piano
=1-
*clefF4
*k[b-e-a-]
*E-:
*M4/4
2r
4BB-/
4E-\
=2
2G\
4G\
4G\
=3
4F\
4E-\
4.G\
8F\
=4
[1E-
=5
2E-\]
4E-\
4G\
=6
2B-\
4B-\
4B-\
=7
4c\
4B-\
4.B-\
8G\
=8
1F
=9
4B-\
4e-\
4c\
4B-\
=10
4c\
2B-\
4G\
=11
!!linebreak:original
4.G\
8B-\
4E-\
4E-\
=12
4F\
4E-\
4F\
4E-\
=13
4C/
4BB-/
4E-\
4A-\
=14
2G\
4G\
4G\
=15
4F\
4E-\
4.G\
8F\
=16
1E-
==
*-
